!!!OTL: 756a. Drei Reiter am Thore.
!!!ARE: Europa, Mitteleuropa, Deutschland
!!!SCT: E0756A
!!!TXL: @@DE
!!!YEM: Copyright 1995, estate of Helmut Schaffrath.
**kern	**text
*ICvox	*
*M4/4	*
*met(c)	*
*k[f#c#g#]	*
*A:	*
{8e	Gott
=1	=1
4.a	grüß
8a	dich,
4.a	lie-
8cc#	-bes
=2	=2
4.b	Mädchen,
8b	.
4b	mir!
8r	.
8ee	Schön
=3	=3
(8ddqq	.
4cc#)	Dank!
4r	.
4r	.
8r	.
{8e	Nimm
=4	=4
4.a	mich
8a	doch
4.a	mit,
8cc#	ich
=5	=5
4.b	fol-
8b	-ge
4b	dir!
8r	.
8ee	Schön
=6	=6
(8ddqq	.
4cc#)	Dank!
4r	.
4r	.
8r	.
{8ee	Du
=7	=7
4.ee	biſt
8ee	ſo
4ee	lieblich,
8ff#	.
8ee	du
=8	=8
4.dd	biſt
8dd	ſo
4dd	ſchön,
8r}	.
{8dd	ich
=9	=9
4.cc#	mag
8cc#	dir
(4cc#	gern
8dd)	in
8ee	das
=10	=10
4.b	Au-
8b	-ge
4b	ſehn.
8r}	.
{8ee	Schön
=11	=11
4.cc#	Dank,
8cc#	schön
4.b	Dank,
8b	schön
=12	=12
2a	Dank!
4r	.
8r}	.
==	==
!!!AGN: Abschieds - Lied
!!!ONB: ESAC (Essen Associative Code) Database: ERK2
!!!AMT: simple quadruple
!!!AIN: vox
!!!EED: Helmut Schaffrath
!!!EEV: 1.0
!!!GTL: Abschieds- und Wanderlieder
!!!URL-scan: https://rosdok.uni-rostock.de/mcrviewer/recordIdentifier/rosdok_ppn745177662/iview2/phys_0564.iview2?x=193.8995864193107&y=751.7343055009842&scale=0.7029437510502773&rotation=0&layout=singlePageLayout
!!!ENC: Anna Maria Matuszewska
!!!EEV: 2024/12/16
*-	*-
